images/3246279.svg

<?xml version="1.0" encoding="UTF-8"?>
<svg xmlns="http://www.w3.org/2000/svg" xmlns:xlink="http://www.w3.org/1999/xlink" width="300pt" height="300pt" viewBox="0 0 300 300" version="1.1">
<defs>
<g>
<symbol overflow="visible" id="glyph0-0">
<path style="stroke:none;" d="M 0.453125 1.59375 L 0.453125 -6.34375 L 4.953125 -6.34375 L 4.953125 1.59375 Z M 0.953125 1.09375 L 4.453125 1.09375 L 4.453125 -5.84375 L 0.953125 -5.84375 Z M 0.953125 1.09375 "/>
</symbol>
<symbol overflow="visible" id="glyph0-1">
<path style="stroke:none;" d="M 3.546875 -5.953125 C 2.898438 -5.953125 2.382812 -5.710938 2 -5.234375 C 1.625 -4.753906 1.4375 -4.101562 1.4375 -3.28125 C 1.4375 -2.445312 1.625 -1.789062 2 -1.3125 C 2.382812 -0.832031 2.898438 -0.59375 3.546875 -0.59375 C 4.191406 -0.59375 4.703125 -0.832031 5.078125 -1.3125 C 5.453125 -1.789062 5.640625 -2.445312 5.640625 -3.28125 C 5.640625 -4.101562 5.453125 -4.753906 5.078125 -5.234375 C 4.703125 -5.710938 4.191406 -5.953125 3.546875 -5.953125 Z M 3.546875 -6.6875 C 4.460938 -6.6875 5.195312 -6.375 5.75 -5.75 C 6.300781 -5.132812 6.578125 -4.3125 6.578125 -3.28125 C 6.578125 -2.238281 6.300781 -1.410156 5.75 -0.796875 C 5.195312 -0.179688 4.460938 0.125 3.546875 0.125 C 2.617188 0.125 1.878906 -0.179688 1.328125 -0.796875 C 0.773438 -1.410156 0.5 -2.238281 0.5 -3.28125 C 0.5 -4.3125 0.773438 -5.132812 1.328125 -5.75 C 1.878906 -6.375 2.617188 -6.6875 3.546875 -6.6875 Z M 3.546875 -6.6875 "/>
</symbol>
<symbol overflow="visible" id="glyph0-2">
<path style="stroke:none;" d="M 0.890625 -6.5625 L 2.078125 -6.5625 L 4.984375 -1.078125 L 4.984375 -6.5625 L 5.84375 -6.5625 L 5.84375 0 L 4.65625 0 L 1.75 -5.484375 L 1.75 0 L 0.890625 0 Z M 0.890625 -6.5625 "/>
</symbol>
<symbol overflow="visible" id="glyph0-3">
<path style="stroke:none;" d="M 0.890625 -6.5625 L 1.765625 -6.5625 L 1.765625 -3.875 L 5 -3.875 L 5 -6.5625 L 5.890625 -6.5625 L 5.890625 0 L 5 0 L 5 -3.125 L 1.765625 -3.125 L 1.765625 0 L 0.890625 0 Z M 0.890625 -6.5625 "/>
</symbol>
<symbol overflow="visible" id="glyph1-0">
<path style="stroke:none;" d="M 0.40625 1.421875 L 0.40625 -5.640625 L 4.40625 -5.640625 L 4.40625 1.421875 Z M 0.84375 0.96875 L 3.953125 0.96875 L 3.953125 -5.1875 L 0.84375 -5.1875 Z M 0.84375 0.96875 "/>
</symbol>
<symbol overflow="visible" id="glyph1-1">
<path style="stroke:none;" d="M 1.53125 -0.671875 L 4.296875 -0.671875 L 4.296875 0 L 0.59375 0 L 0.59375 -0.671875 C 0.882812 -0.972656 1.289062 -1.382812 1.8125 -1.90625 C 2.332031 -2.4375 2.65625 -2.773438 2.78125 -2.921875 C 3.039062 -3.203125 3.21875 -3.441406 3.3125 -3.640625 C 3.414062 -3.835938 3.46875 -4.03125 3.46875 -4.21875 C 3.46875 -4.53125 3.359375 -4.785156 3.140625 -4.984375 C 2.921875 -5.179688 2.640625 -5.28125 2.296875 -5.28125 C 2.046875 -5.28125 1.78125 -5.234375 1.5 -5.140625 C 1.226562 -5.054688 0.9375 -4.925781 0.625 -4.75 L 0.625 -5.546875 C 0.945312 -5.679688 1.242188 -5.78125 1.515625 -5.84375 C 1.796875 -5.90625 2.050781 -5.9375 2.28125 -5.9375 C 2.882812 -5.9375 3.363281 -5.785156 3.71875 -5.484375 C 4.082031 -5.179688 4.265625 -4.78125 4.265625 -4.28125 C 4.265625 -4.039062 4.21875 -3.8125 4.125 -3.59375 C 4.03125 -3.375 3.867188 -3.117188 3.640625 -2.828125 C 3.566406 -2.753906 3.351562 -2.535156 3 -2.171875 C 2.65625 -1.816406 2.164062 -1.316406 1.53125 -0.671875 Z M 1.53125 -0.671875 "/>
</symbol>
</g>
</defs>
<g id="surface51149">
<rect x="0" y="0" width="300" height="300" style="fill:rgb(100%,100%,100%);fill-opacity:1;stroke:none;"/>
<path style=" stroke:none;fill-rule:nonzero;fill:rgb(0%,0%,0%);fill-opacity:1;" d="M 94.0625 123.03125 L 79.234375 104.316406 L 73.726562 110.519531 Z M 94.0625 123.03125 "/>
<path style="fill:none;stroke-width:1.2;stroke-linecap:butt;stroke-linejoin:miter;stroke:rgb(0%,0%,0%);stroke-opacity:1;stroke-miterlimit:10;" d="M 94.0625 123.03125 L 89.332031 146.0625 "/>
<path style="fill:none;stroke-width:1.2;stroke-linecap:butt;stroke-linejoin:miter;stroke:rgb(0%,0%,0%);stroke-opacity:1;stroke-miterlimit:10;" d="M 94.0625 123.03125 L 116.371094 115.613281 "/>
<path style="fill:none;stroke-width:1.2;stroke-linecap:butt;stroke-linejoin:miter;stroke:rgb(0%,0%,0%);stroke-opacity:1;stroke-miterlimit:10;" d="M 89.332031 146.0625 L 67.019531 153.480469 "/>
<path style="fill:none;stroke-width:1.2;stroke-linecap:butt;stroke-linejoin:miter;stroke:rgb(0%,0%,0%);stroke-opacity:1;stroke-miterlimit:10;" d="M 67.019531 153.480469 L 62.289062 176.511719 "/>
<path style="fill:none;stroke-width:1.2;stroke-linecap:butt;stroke-linejoin:miter;stroke:rgb(0%,0%,0%);stroke-opacity:1;stroke-miterlimit:10;" d="M 60.453125 178.578125 L 69.242188 186.382812 "/>
<path style="fill:none;stroke-width:1.2;stroke-linecap:butt;stroke-linejoin:miter;stroke:rgb(100%,0%,0%);stroke-opacity:1;stroke-miterlimit:10;" d="M 69.242188 186.382812 L 78.035156 194.191406 "/>
<path style="fill:none;stroke-width:1.2;stroke-linecap:butt;stroke-linejoin:miter;stroke:rgb(0%,0%,0%);stroke-opacity:1;stroke-miterlimit:10;" d="M 64.125 174.441406 L 72.917969 182.25 "/>
<path style="fill:none;stroke-width:1.2;stroke-linecap:butt;stroke-linejoin:miter;stroke:rgb(100%,0%,0%);stroke-opacity:1;stroke-miterlimit:10;" d="M 72.917969 182.25 L 81.707031 190.054688 "/>
<path style="fill:none;stroke-width:1.2;stroke-linecap:butt;stroke-linejoin:miter;stroke:rgb(0%,0%,0%);stroke-opacity:1;stroke-miterlimit:10;" d="M 62.289062 176.511719 L 51.136719 180.21875 "/>
<path style="fill:none;stroke-width:1.2;stroke-linecap:butt;stroke-linejoin:miter;stroke:rgb(0%,0%,100%);stroke-opacity:1;stroke-miterlimit:10;" d="M 51.136719 180.21875 L 39.980469 183.929688 "/>
<path style=" stroke:none;fill-rule:nonzero;fill:rgb(100%,100%,100%);fill-opacity:1;" d="M 75.871094 186.621094 L 83.871094 186.621094 L 83.871094 197.621094 L 75.871094 197.621094 Z M 75.871094 186.621094 "/>
<g style="fill:rgb(100%,0%,0%);fill-opacity:1;">
  <use xlink:href="#glyph0-1" x="75.871094" y="195.28418"/>
</g>
<path style="fill:none;stroke-width:1.2;stroke-linecap:butt;stroke-linejoin:miter;stroke:rgb(0%,0%,100%);stroke-opacity:1;stroke-miterlimit:10;" d="M 39.980469 183.929688 L 35.25 206.960938 "/>
<path style=" stroke:none;fill-rule:nonzero;fill:rgb(100%,100%,100%);fill-opacity:1;" d="M 32.980469 178.429688 L 46.980469 178.429688 L 46.980469 189.429688 L 32.980469 189.429688 Z M 32.980469 178.429688 "/>
<g style="fill:rgb(0%,0%,100%);fill-opacity:1;">
  <use xlink:href="#glyph0-2" x="32.980469" y="187.092773"/>
  <use xlink:href="#glyph0-3" x="39.958008" y="187.092773"/>
</g>
<path style=" stroke:none;fill-rule:nonzero;fill:rgb(100%,100%,100%);fill-opacity:1;" d="M 26.25 198.960938 L 45.25 198.960938 L 45.25 214.960938 L 26.25 214.960938 Z M 26.25 198.960938 "/>
<g style="fill:rgb(0%,0%,100%);fill-opacity:1;">
  <use xlink:href="#glyph0-3" x="26.25" y="207.624023"/>
</g>
<g style="fill:rgb(0%,0%,100%);fill-opacity:1;">
  <use xlink:href="#glyph1-1" x="33.264648" y="212.506836"/>
</g>
<g style="fill:rgb(0%,0%,100%);fill-opacity:1;">
  <use xlink:href="#glyph0-2" x="38.214844" y="207.624023"/>
</g>
<path style="fill:none;stroke-width:1;stroke-linecap:butt;stroke-linejoin:miter;stroke:rgb(0%,0%,0%);stroke-opacity:1;stroke-miterlimit:10;" d="M 116.371094 115.613281 L 116.371094 115.613281 M 117.761719 112.953125 L 116.765625 112.636719 M 119.152344 110.296875 L 117.164062 109.664062 M 120.542969 107.636719 L 117.5625 106.691406 M 121.933594 104.976562 L 117.957031 103.71875 M 123.324219 102.320312 L 118.355469 100.742188 M 124.714844 99.660156 L 118.75 97.769531 M 126.105469 97.003906 L 119.148438 94.796875 M 127.4375 94.457031 L 119.527344 91.945312 "/>
<path style="fill:none;stroke-width:1.2;stroke-linecap:butt;stroke-linejoin:miter;stroke:rgb(0%,0%,0%);stroke-opacity:1;stroke-miterlimit:10;" d="M 135.488281 129.300781 L 116.371094 115.613281 "/>
<path style="fill:none;stroke-width:1.2;stroke-linecap:butt;stroke-linejoin:miter;stroke:rgb(0%,0%,0%);stroke-opacity:1;stroke-miterlimit:10;" d="M 123.480469 93.203125 L 146.992188 93.039062 "/>
<path style="fill:none;stroke-width:1;stroke-linecap:butt;stroke-linejoin:miter;stroke:rgb(0%,0%,0%);stroke-opacity:1;stroke-miterlimit:10;" d="M 154.414062 115.351562 L 154.414062 115.351562 M 153.972656 112.382812 L 152.984375 112.710938 M 153.535156 109.414062 L 151.558594 110.070312 M 153.097656 106.445312 L 150.132812 107.433594 M 152.660156 103.476562 L 148.703125 104.792969 M 152.222656 100.511719 L 147.277344 102.15625 M 151.785156 97.542969 L 145.851562 99.515625 M 151.347656 94.574219 L 144.421875 96.878906 M 150.929688 91.730469 L 143.054688 94.347656 "/>
<path style="fill:none;stroke-width:1.2;stroke-linecap:butt;stroke-linejoin:miter;stroke:rgb(0%,0%,0%);stroke-opacity:1;stroke-miterlimit:10;" d="M 154.414062 115.351562 L 135.488281 129.300781 "/>
<path style="fill:none;stroke-width:1.2;stroke-linecap:butt;stroke-linejoin:miter;stroke:rgb(0%,0%,0%);stroke-opacity:1;stroke-miterlimit:10;" d="M 175.957031 124.765625 L 154.414062 115.351562 "/>
<path style="fill:none;stroke-width:1.2;stroke-linecap:butt;stroke-linejoin:miter;stroke:rgb(0%,0%,0%);stroke-opacity:1;stroke-miterlimit:10;" d="M 135.488281 129.300781 L 138.105469 152.664062 "/>
<path style="fill:none;stroke-width:1;stroke-linecap:butt;stroke-linejoin:miter;stroke:rgb(0%,0%,0%);stroke-opacity:1;stroke-miterlimit:10;" d="M 135.488281 129.300781 L 135.488281 129.300781 M 132.675781 130.34375 L 133.203125 131.246094 M 129.863281 131.390625 L 130.917969 133.1875 M 127.050781 132.433594 L 128.632812 135.132812 M 124.238281 133.480469 L 126.347656 137.078125 M 121.425781 134.523438 L 124.0625 139.023438 M 118.613281 135.570312 L 121.777344 140.964844 M 115.800781 136.613281 L 119.496094 142.910156 M 113.105469 137.617188 L 117.304688 144.773438 "/>
<path style="fill:none;stroke-width:1.2;stroke-linecap:butt;stroke-linejoin:miter;stroke:rgb(0%,0%,0%);stroke-opacity:1;stroke-miterlimit:10;" d="M 138.105469 152.664062 L 159.648438 162.082031 "/>
<path style="fill:none;stroke-width:1;stroke-linecap:butt;stroke-linejoin:miter;stroke:rgb(0%,0%,0%);stroke-opacity:1;stroke-miterlimit:10;" d="M 178.574219 148.128906 L 178.574219 148.128906 M 175.886719 149.464844 L 176.503906 150.304688 M 173.199219 150.796875 L 174.4375 152.476562 M 170.511719 152.128906 L 172.367188 154.648438 M 167.824219 153.464844 L 170.300781 156.820312 M 165.136719 154.796875 L 168.230469 158.992188 M 162.449219 156.128906 L 166.160156 161.164062 M 159.761719 157.460938 L 164.09375 163.339844 M 157.1875 158.742188 L 162.109375 165.421875 "/>
<path style="fill:none;stroke-width:1.2;stroke-linecap:butt;stroke-linejoin:miter;stroke:rgb(0%,0%,0%);stroke-opacity:1;stroke-miterlimit:10;" d="M 178.574219 148.128906 L 175.957031 124.765625 "/>
<path style="fill:none;stroke-width:1.2;stroke-linecap:butt;stroke-linejoin:miter;stroke:rgb(0%,0%,0%);stroke-opacity:1;stroke-miterlimit:10;" d="M 200.117188 157.546875 L 178.574219 148.128906 "/>
<path style=" stroke:none;fill-rule:nonzero;fill:rgb(0%,0%,0%);fill-opacity:1;" d="M 175.957031 124.765625 L 197.34375 114.15625 L 192.421875 107.476562 Z M 175.957031 124.765625 "/>
<path style="fill:none;stroke-width:1.2;stroke-linecap:butt;stroke-linejoin:miter;stroke:rgb(0%,0%,0%);stroke-opacity:1;stroke-miterlimit:10;" d="M 194.882812 110.816406 L 216.425781 120.230469 "/>
<path style=" stroke:none;fill-rule:nonzero;fill:rgb(0%,0%,0%);fill-opacity:1;" d="M 219.042969 143.59375 L 220.550781 119.769531 L 212.300781 120.691406 Z M 219.042969 143.59375 "/>
<path style="fill:none;stroke-width:1.2;stroke-linecap:butt;stroke-linejoin:miter;stroke:rgb(0%,0%,0%);stroke-opacity:1;stroke-miterlimit:10;" d="M 219.042969 143.59375 L 200.117188 157.546875 "/>
<path style="fill:none;stroke-width:1.2;stroke-linecap:butt;stroke-linejoin:miter;stroke:rgb(0%,0%,0%);stroke-opacity:1;stroke-miterlimit:10;" d="M 240.585938 153.011719 L 219.042969 143.59375 "/>
<path style="fill:none;stroke-width:1.2;stroke-linecap:butt;stroke-linejoin:miter;stroke:rgb(0%,0%,0%);stroke-opacity:1;stroke-miterlimit:10;" d="M 200.117188 157.546875 L 202.738281 180.910156 "/>
<path style="fill:none;stroke-width:1;stroke-linecap:butt;stroke-linejoin:miter;stroke:rgb(0%,0%,0%);stroke-opacity:1;stroke-miterlimit:10;" d="M 200.117188 157.546875 L 200.117188 157.546875 M 197.429688 158.878906 L 198.050781 159.71875 M 194.742188 160.210938 L 195.980469 161.890625 M 192.054688 161.546875 L 193.910156 164.0625 M 189.367188 162.878906 L 191.84375 166.234375 M 186.679688 164.210938 L 189.773438 168.40625 M 183.992188 165.542969 L 187.707031 170.582031 M 181.304688 166.878906 L 185.636719 172.753906 M 178.730469 168.15625 L 183.65625 174.835938 "/>
<path style="fill:none;stroke-width:1.2;stroke-linecap:butt;stroke-linejoin:miter;stroke:rgb(0%,0%,0%);stroke-opacity:1;stroke-miterlimit:10;" d="M 202.738281 180.910156 L 224.28125 190.324219 "/>
<path style="fill:none;stroke-width:1.2;stroke-linecap:butt;stroke-linejoin:miter;stroke:rgb(0%,0%,0%);stroke-opacity:1;stroke-miterlimit:10;" d="M 224.28125 190.324219 L 243.207031 176.375 "/>
<path style="fill:none;stroke-width:1.2;stroke-linecap:butt;stroke-linejoin:miter;stroke:rgb(0%,0%,0%);stroke-opacity:1;stroke-miterlimit:10;" d="M 243.207031 176.375 L 240.585938 153.011719 "/>
<path style=" stroke:none;fill-rule:nonzero;fill:rgb(0%,0%,0%);fill-opacity:1;" d="M 243.207031 176.375 L 263.089844 189.59375 L 266.410156 181.988281 Z M 243.207031 176.375 "/>
<path style=" stroke:none;fill-rule:nonzero;fill:rgb(100%,100%,100%);fill-opacity:1;" d="M 257.75 180.289062 L 272.75 180.289062 L 272.75 191.289062 L 257.75 191.289062 Z M 257.75 180.289062 "/>
<g style="fill:rgb(100%,0%,0%);fill-opacity:1;">
  <use xlink:href="#glyph0-1" x="257.75" y="188.952148"/>
  <use xlink:href="#glyph0-3" x="265.091797" y="188.952148"/>
</g>
</g>
</svg>

<svg xmlns="http://www.w3.org/2000/svg" xmlns:xlink="http://www.w3.org/1999/xlink" width="300pt" height="300pt" viewBox="0 0 300 300"><defs><symbol overflow="visible"><path d="M.453 1.594v-7.938h4.5v7.938zm.5-.5h3.5v-6.938h-3.5zm0 0"/></symbol><symbol overflow="visible" id="a"><path d="M3.547-5.953c-.65 0-1.164.242-1.547.72-.375.48-.563 1.13-.563 1.952 0 .835.188 1.49.563 1.967.383.48.898.72 1.547.72.644 0 1.156-.24 1.53-.72.376-.476.564-1.132.564-1.968 0-.822-.187-1.474-.562-1.954-.375-.477-.887-.72-1.53-.72zm0-.734c.914 0 1.648.312 2.203.937.55.617.828 1.438.828 2.47 0 1.042-.277 1.87-.828 2.483-.555.617-1.29.922-2.203.922-.93 0-1.668-.305-2.22-.922C.774-1.41.5-2.237.5-3.28c0-1.033.273-1.853.828-2.47.55-.625 1.29-.938 2.22-.938zm0 0"/></symbol><symbol overflow="visible" id="b"><path d="M.89-6.563H2.08l2.906 5.485v-5.484h.86V0H4.656L1.75-5.484V0H.89zm0 0"/></symbol><symbol overflow="visible" id="c"><path d="M.89-6.563h.876v2.688H5v-2.688h.89V0H5v-3.125H1.766V0H.89zm0 0"/></symbol><symbol overflow="visible"><path d="M.406 1.422V-5.64h4V1.42zM.844.97h3.11v-6.157H.843zm0 0"/></symbol><symbol overflow="visible" id="d"><path d="M1.53-.672h2.767V0H.594v-.672c.29-.3.695-.71 1.22-1.234.518-.532.842-.867.967-1.016.26-.28.44-.52.533-.72.1-.194.156-.39.156-.577 0-.31-.11-.565-.33-.764-.218-.196-.5-.297-.843-.297-.25 0-.516.046-.797.14-.273.085-.563.214-.875.39v-.797c.32-.133.617-.234.89-.297.282-.062.536-.093.766-.093.603 0 1.083.152 1.44.453.362.304.546.703.546 1.203 0 .24-.047.468-.14.686-.095.22-.26.477-.485.766-.074.074-.288.293-.64.656-.344.356-.836.856-1.47 1.5zm0 0"/></symbol></defs><g><path fill="#fff" d="M0 0h300v300H0z"/><path d="M94.063 123.03l-14.83-18.714-5.506 6.204zm0 0"/><path d="M94.063 123.03l-4.73 23.032M94.063 123.03l22.308-7.417M89.332 146.063L67.02 153.48M67.02 153.48l-4.73 23.032M60.453 178.578l8.79 7.805" stroke-width="1.2" stroke="#000" stroke-miterlimit="10" fill="none"/><path d="M69.242 186.383l8.793 7.808" stroke-width="1.2" stroke="#f00" stroke-miterlimit="10" fill="none"/><path d="M64.125 174.44l8.793 7.81" stroke-width="1.2" stroke="#000" stroke-miterlimit="10" fill="none"/><path d="M72.918 182.25l8.79 7.805" stroke-width="1.2" stroke="#f00" stroke-miterlimit="10" fill="none"/><path d="M62.29 176.512l-11.153 3.707" stroke-width="1.2" stroke="#000" stroke-miterlimit="10" fill="none"/><path d="M51.137 180.22l-11.157 3.71" stroke-width="1.2" stroke="#00f" stroke-miterlimit="10" fill="none"/><path d="M75.87 186.62h8v11h-8zm0 0" fill="#fff"/><use xlink:href="#a" x="75.871" y="195.284" fill="#f00"/><path d="M39.98 183.93l-4.73 23.03" stroke-width="1.2" stroke="#00f" stroke-miterlimit="10" fill="none"/><path d="M32.98 178.43h14v11h-14zm0 0" fill="#fff"/><g fill="#00f"><use xlink:href="#b" x="32.98" y="187.093"/><use xlink:href="#c" x="39.958" y="187.093"/></g><path d="M26.25 198.96h19v16h-19zm0 0" fill="#fff"/><use xlink:href="#c" x="26.25" y="207.624" fill="#00f"/><use xlink:href="#d" x="33.265" y="212.507" fill="#00f"/><use xlink:href="#b" x="38.215" y="207.624" fill="#00f"/><path d="M116.37 115.613m1.392-2.66l-.996-.316m2.386-2.34l-1.988-.633m3.38-2.027l-2.98-.946m4.37-1.713l-3.977-1.258m5.367-1.4l-4.97-1.578m6.36-1.082l-5.964-1.89m7.355-.766l-6.957-2.207m8.29-.34l-7.91-2.512" stroke="#000" stroke-miterlimit="10" fill="none"/><path d="M135.488 129.3l-19.117-13.687M123.48 93.203l23.512-.164" stroke-width="1.2" stroke="#000" stroke-miterlimit="10" fill="none"/><path d="M154.414 115.352m-.44-2.97l-.99.33m.55-3.298l-1.975.656m1.538-3.625l-2.965.99m2.527-3.958l-3.957 1.316m3.52-4.28l-4.946 1.643m4.508-4.613l-5.933 1.973m5.496-4.942l-6.926 2.305m6.508-5.15l-7.875 2.618" stroke="#000" stroke-miterlimit="10" fill="none"/><path d="M154.414 115.352l-18.926 13.95M175.957 124.766l-21.543-9.414M135.488 129.3l2.617 23.364" stroke-width="1.2" stroke="#000" stroke-miterlimit="10" fill="none"/><path d="M135.488 129.3m-2.812 1.044l.527.902m-3.34.145l1.055 1.798m-3.867-.754l1.583 2.7m-4.395-1.654l2.11 3.598m-4.922-2.555l2.636 4.5m-5.45-3.453l3.165 5.395m-5.976-4.352l3.696 6.297m-6.39-5.293l4.2 7.156" stroke="#000" stroke-miterlimit="10" fill="none"/><path d="M138.105 152.664l21.543 9.418" stroke-width="1.2" stroke="#000" stroke-miterlimit="10" fill="none"/><path d="M178.574 148.13m-2.687 1.335l.617.84m-3.305.492l1.238 1.68m-3.926-.348l1.855 2.518m-4.543-1.183l2.477 3.355m-5.163-2.023l3.093 4.195m-5.78-2.863l3.71 5.034m-6.398-3.703l4.332 5.88m-6.906-4.598l4.92 6.68" stroke="#000" stroke-miterlimit="10" fill="none"/><path d="M178.574 148.13l-2.617-23.364M200.117 157.547l-21.543-9.418" stroke-width="1.2" stroke="#000" stroke-miterlimit="10" fill="none"/><path d="M175.957 124.766l21.387-10.61-4.922-6.68zm0 0"/><path d="M194.883 110.816l21.543 9.414" stroke-width="1.2" stroke="#000" stroke-miterlimit="10" fill="none"/><path d="M219.043 143.594l1.508-23.824-8.25.92zm0 0"/><path d="M219.043 143.594l-18.926 13.953M240.586 153.012l-21.543-9.418M200.117 157.547l2.62 23.363" stroke-width="1.2" stroke="#000" stroke-miterlimit="10" fill="none"/><path d="M200.117 157.547m-2.687 1.332l.62.84m-3.308.49l1.238 1.68m-3.925-.343l1.855 2.516m-4.543-1.184l2.477 3.354m-5.164-2.023l3.093 4.196m-5.78-2.863l3.714 5.04m-6.402-3.704l4.332 5.874m-6.907-4.598l4.926 6.68" stroke="#000" stroke-miterlimit="10" fill="none"/><path d="M202.738 180.91l21.543 9.414M224.28 190.324l18.927-13.95M243.207 176.375l-2.62-23.363" stroke-width="1.2" stroke="#000" stroke-miterlimit="10" fill="none"/><path d="M243.207 176.375l19.883 13.22 3.32-7.607zm0 0"/><path d="M257.75 180.29h15v11h-15zm0 0" fill="#fff"/><g fill="#f00"><use xlink:href="#a" x="257.75" y="188.952"/><use xlink:href="#c" x="265.092" y="188.952"/></g></g></svg>
